bernoullicharts/1_3_x__mean.svg

<?xml version="1.0" encoding="utf-8" standalone="no"?>
<!DOCTYPE svg PUBLIC "-//W3C//DTD SVG 1.1//EN"
  "http://www.w3.org/Graphics/SVG/1.1/DTD/svg11.dtd">
<!-- Created with matplotlib (https://matplotlib.org/) -->
<svg height="345.6pt" version="1.1" viewBox="0 0 460.8 345.6" width="460.8pt" xmlns="http://www.w3.org/2000/svg" xmlns:xlink="http://www.w3.org/1999/xlink">
 <defs>
  <style type="text/css">
*{stroke-linecap:butt;stroke-linejoin:round;}
  </style>
 </defs>
 <g id="figure_1">
  <g id="patch_1">
   <path d="M 0 345.6 
L 460.8 345.6 
L 460.8 0 
L 0 0 
z
" style="fill:#ffffff;"/>
  </g>
  <g id="axes_1">
   <g id="patch_2">
    <path d="M 57.6 307.584 
L 414.72 307.584 
L 414.72 41.472 
L 57.6 41.472 
z
" style="fill:#ffffff;"/>
   </g>
   <g id="matplotlib.axis_1">
    <g id="xtick_1">
     <g id="line2d_1">
      <defs>
       <path d="M 0 0 
L 0 3.5 
" id="mc919abda45" style="stroke:#000000;stroke-width:0.8;"/>
      </defs>
      <g>
       <use style="stroke:#000000;stroke-width:0.8;" x="73.800255" xlink:href="#mc919abda45" y="307.584"/>
      </g>
     </g>
     <g id="text_1">
      <text style="font-family:DejaVu Sans;font-size:10px;font-style:normal;font-weight:normal;text-anchor:middle;" transform="rotate(-0, 73.800255, 322.182437)" x="73.800255" y="322.182437">0.0</text>
     </g>
    </g>
    <g id="xtick_2">
     <g id="line2d_2">
      <g>
       <use style="stroke:#000000;stroke-width:0.8;" x="138.744153" xlink:href="#mc919abda45" y="307.584"/>
      </g>
     </g>
     <g id="text_2">
      <text style="font-family:DejaVu Sans;font-size:10px;font-style:normal;font-weight:normal;text-anchor:middle;" transform="rotate(-0, 138.744153, 322.182437)" x="138.744153" y="322.182437">0.2</text>
     </g>
    </g>
    <g id="xtick_3">
     <g id="line2d_3">
      <g>
       <use style="stroke:#000000;stroke-width:0.8;" x="203.688051" xlink:href="#mc919abda45" y="307.584"/>
      </g>
     </g>
     <g id="text_3">
      <text style="font-family:DejaVu Sans;font-size:10px;font-style:normal;font-weight:normal;text-anchor:middle;" transform="rotate(-0, 203.688051, 322.182437)" x="203.688051" y="322.182437">0.4</text>
     </g>
    </g>
    <g id="xtick_4">
     <g id="line2d_4">
      <g>
       <use style="stroke:#000000;stroke-width:0.8;" x="268.631949" xlink:href="#mc919abda45" y="307.584"/>
      </g>
     </g>
     <g id="text_4">
      <text style="font-family:DejaVu Sans;font-size:10px;font-style:normal;font-weight:normal;text-anchor:middle;" transform="rotate(-0, 268.631949, 322.182437)" x="268.631949" y="322.182437">0.6</text>
     </g>
    </g>
    <g id="xtick_5">
     <g id="line2d_5">
      <g>
       <use style="stroke:#000000;stroke-width:0.8;" x="333.575847" xlink:href="#mc919abda45" y="307.584"/>
      </g>
     </g>
     <g id="text_5">
      <text style="font-family:DejaVu Sans;font-size:10px;font-style:normal;font-weight:normal;text-anchor:middle;" transform="rotate(-0, 333.575847, 322.182437)" x="333.575847" y="322.182437">0.8</text>
     </g>
    </g>
    <g id="xtick_6">
     <g id="line2d_6">
      <g>
       <use style="stroke:#000000;stroke-width:0.8;" x="398.519745" xlink:href="#mc919abda45" y="307.584"/>
      </g>
     </g>
     <g id="text_6">
      <text style="font-family:DejaVu Sans;font-size:10px;font-style:normal;font-weight:normal;text-anchor:middle;" transform="rotate(-0, 398.519745, 322.182437)" x="398.519745" y="322.182437">1.0</text>
     </g>
    </g>
    <g id="text_7">
     <text style="font-family:DejaVu Sans;font-size:10px;font-style:normal;font-weight:normal;text-anchor:middle;" transform="rotate(-0, 236.16, 335.860562)" x="236.16" y="335.860562">Input Coin's Heads Probability (λ)</text>
    </g>
   </g>
   <g id="matplotlib.axis_2">
    <g id="ytick_1">
     <g id="line2d_7">
      <defs>
       <path d="M 0 0 
L -3.5 0 
" id="m174a58d7fa" style="stroke:#000000;stroke-width:0.8;"/>
      </defs>
      <g>
       <use style="stroke:#000000;stroke-width:0.8;" x="57.6" xlink:href="#m174a58d7fa" y="305.709972"/>
      </g>
     </g>
     <g id="text_8">
      <text style="font-family:DejaVu Sans;font-size:10px;font-style:normal;font-weight:normal;text-anchor:end;" transform="rotate(-0, 50.6, 309.509191)" x="50.6" y="309.509191">0.22</text>
     </g>
    </g>
    <g id="ytick_2">
     <g id="line2d_8">
      <g>
       <use style="stroke:#000000;stroke-width:0.8;" x="57.6" xlink:href="#m174a58d7fa" y="271.636732"/>
      </g>
     </g>
     <g id="text_9">
      <text style="font-family:DejaVu Sans;font-size:10px;font-style:normal;font-weight:normal;text-anchor:end;" transform="rotate(-0, 50.6, 275.435951)" x="50.6" y="275.435951">0.24</text>
     </g>
    </g>
    <g id="ytick_3">
     <g id="line2d_9">
      <g>
       <use style="stroke:#000000;stroke-width:0.8;" x="57.6" xlink:href="#m174a58d7fa" y="237.563493"/>
      </g>
     </g>
     <g id="text_10">
      <text style="font-family:DejaVu Sans;font-size:10px;font-style:normal;font-weight:normal;text-anchor:end;" transform="rotate(-0, 50.6, 241.362712)" x="50.6" y="241.362712">0.26</text>
     </g>
    </g>
    <g id="ytick_4">
     <g id="line2d_10">
      <g>
       <use style="stroke:#000000;stroke-width:0.8;" x="57.6" xlink:href="#m174a58d7fa" y="203.490254"/>
      </g>
     </g>
     <g id="text_11">
      <text style="font-family:DejaVu Sans;font-size:10px;font-style:normal;font-weight:normal;text-anchor:end;" transform="rotate(-0, 50.6, 207.289472)" x="50.6" y="207.289472">0.28</text>
     </g>
    </g>
    <g id="ytick_5">
     <g id="line2d_11">
      <g>
       <use style="stroke:#000000;stroke-width:0.8;" x="57.6" xlink:href="#m174a58d7fa" y="169.417014"/>
      </g>
     </g>
     <g id="text_12">
      <text style="font-family:DejaVu Sans;font-size:10px;font-style:normal;font-weight:normal;text-anchor:end;" transform="rotate(-0, 50.6, 173.216233)" x="50.6" y="173.216233">0.30</text>
     </g>
    </g>
    <g id="ytick_6">
     <g id="line2d_12">
      <g>
       <use style="stroke:#000000;stroke-width:0.8;" x="57.6" xlink:href="#m174a58d7fa" y="135.343775"/>
      </g>
     </g>
     <g id="text_13">
      <text style="font-family:DejaVu Sans;font-size:10px;font-style:normal;font-weight:normal;text-anchor:end;" transform="rotate(-0, 50.6, 139.142993)" x="50.6" y="139.142993">0.32</text>
     </g>
    </g>
    <g id="ytick_7">
     <g id="line2d_13">
      <g>
       <use style="stroke:#000000;stroke-width:0.8;" x="57.6" xlink:href="#m174a58d7fa" y="101.270535"/>
      </g>
     </g>
     <g id="text_14">
      <text style="font-family:DejaVu Sans;font-size:10px;font-style:normal;font-weight:normal;text-anchor:end;" transform="rotate(-0, 50.6, 105.069754)" x="50.6" y="105.069754">0.34</text>
     </g>
    </g>
    <g id="ytick_8">
     <g id="line2d_14">
      <g>
       <use style="stroke:#000000;stroke-width:0.8;" x="57.6" xlink:href="#m174a58d7fa" y="67.197296"/>
      </g>
     </g>
     <g id="text_15">
      <text style="font-family:DejaVu Sans;font-size:10px;font-style:normal;font-weight:normal;text-anchor:end;" transform="rotate(-0, 50.6, 70.996515)" x="50.6" y="70.996515">0.36</text>
     </g>
    </g>
    <g id="text_16">
     <text style="font-family:DejaVu Sans;font-size:10px;font-style:normal;font-weight:normal;text-anchor:middle;" transform="rotate(-90, 22.254687, 174.528)" x="22.254687" y="174.528">Simulated Mean / Function Value</text>
    </g>
   </g>
   <g id="line2d_15">
    <path clip-path="url(#p5c31911923)" d="M 73.832727 112.647211 
L 77.112066 114.552366 
L 80.391405 116.444781 
L 83.670744 118.324583 
L 86.950083 120.191897 
L 90.229421 122.046848 
L 93.50876 123.889558 
L 96.788099 125.720147 
L 100.067438 127.538735 
L 103.346777 129.34544 
L 106.626116 131.140377 
L 109.905455 132.923662 
L 113.184793 134.695406 
L 116.464132 136.455723 
L 119.743471 138.204722 
L 123.02281 139.942512 
L 126.302149 141.6692 
L 129.581488 143.384893 
L 132.860826 145.089694 
L 136.140165 146.783709 
L 139.419504 148.467037 
L 142.698843 150.139782 
L 145.978182 151.80204 
L 149.257521 153.453913 
L 152.53686 155.095495 
L 155.816198 156.726883 
L 159.095537 158.348172 
L 162.374876 159.959455 
L 165.654215 161.560825 
L 168.933554 163.152372 
L 172.212893 164.734188 
L 175.492231 166.30636 
L 178.77157 167.868977 
L 182.050909 169.422125 
L 185.330248 170.965891 
L 188.609587 172.500359 
L 191.888926 174.025613 
L 195.168264 175.541735 
L 198.447603 177.048808 
L 201.726942 178.546912 
L 205.006281 180.036127 
L 208.28562 181.516532 
L 211.564959 182.988205 
L 214.844298 184.451222 
L 218.123636 185.905661 
L 221.402975 187.351596 
L 224.682314 188.789101 
L 227.961653 190.218251 
L 231.240992 191.639117 
L 234.520331 193.051772 
L 237.799669 194.456286 
L 241.079008 195.85273 
L 244.358347 197.241173 
L 247.637686 198.621684 
L 250.917025 199.99433 
L 254.196364 201.359179 
L 257.475702 202.716296 
L 260.755041 204.065747 
L 264.03438 205.407597 
L 267.313719 206.741911 
L 270.593058 208.06875 
L 273.872397 209.388179 
L 277.151736 210.700258 
L 280.431074 212.00505 
L 283.710413 213.302614 
L 286.989752 214.59301 
L 290.269091 215.876298 
L 293.54843 217.152537 
L 296.827769 218.421784 
L 300.107107 219.684096 
L 303.386446 220.939531 
L 306.665785 222.188144 
L 309.945124 223.42999 
L 313.224463 224.665125 
L 316.503802 225.893603 
L 319.78314 227.115478 
L 323.062479 228.330802 
L 326.341818 229.539628 
L 329.621157 230.742009 
L 332.900496 231.937994 
L 336.179835 233.127637 
L 339.459174 234.310986 
L 342.738512 235.488091 
L 346.017851 236.659003 
L 349.29719 237.823769 
L 352.576529 238.982438 
L 355.855868 240.135057 
L 359.135207 241.281675 
L 362.414545 242.422337 
L 365.693884 243.55709 
L 368.973223 244.685979 
L 372.252562 245.809051 
L 375.531901 246.926349 
L 378.81124 248.037919 
L 382.090579 249.143804 
L 385.369917 250.244048 
L 388.649256 251.338693 
L 391.928595 252.427783 
L 395.207934 253.51136 
L 398.487273 254.589465 
" style="fill:none;stroke:#1f77b4;stroke-linecap:square;stroke-width:1.5;"/>
   </g>
   <g id="line2d_16">
    <path clip-path="url(#p5c31911923)" d="M 73.832727 101.270535 
L 77.112066 114.899831 
L 80.391405 155.787718 
L 83.670744 121.714479 
L 86.950083 101.270535 
L 90.229421 104.677859 
L 93.50876 53.568 
L 96.788099 135.343775 
L 100.067438 74.011944 
L 103.346777 138.751099 
L 106.626116 135.343775 
L 109.905455 128.529127 
L 113.184793 87.641239 
L 116.464132 186.453634 
L 119.743471 128.529127 
L 123.02281 118.307155 
L 126.302149 121.714479 
L 129.581488 179.638986 
L 132.860826 142.158423 
L 136.140165 152.380394 
L 139.419504 125.121803 
L 142.698843 138.751099 
L 145.978182 87.641239 
L 149.257521 217.119549 
L 152.53686 162.602366 
L 155.816198 125.121803 
L 159.095537 169.417014 
L 162.374876 138.751099 
L 165.654215 162.602366 
L 168.933554 128.529127 
L 172.212893 97.863211 
L 175.492231 142.158423 
L 178.77157 166.00969 
L 182.050909 183.04631 
L 185.330248 203.490254 
L 188.609587 210.304901 
L 191.888926 159.195042 
L 195.168264 223.934197 
L 198.447603 210.304901 
L 201.726942 186.453634 
L 205.006281 172.824338 
L 208.28562 254.600113 
L 211.564959 210.304901 
L 214.844298 210.304901 
L 218.123636 193.268282 
L 221.402975 176.231662 
L 224.682314 220.526873 
L 227.961653 152.380394 
L 231.240992 200.08293 
L 234.520331 155.787718 
L 237.799669 186.453634 
L 241.079008 152.380394 
L 244.358347 186.453634 
L 247.637686 258.007437 
L 250.917025 189.860958 
L 254.196364 210.304901 
L 257.475702 292.080676 
L 260.755041 166.00969 
L 264.03438 186.453634 
L 267.313719 213.712225 
L 270.593058 179.638986 
L 273.872397 200.08293 
L 277.151736 200.08293 
L 280.431074 220.526873 
L 283.710413 169.417014 
L 286.989752 176.231662 
L 290.269091 220.526873 
L 293.54843 247.785465 
L 296.827769 210.304901 
L 300.107107 210.304901 
L 303.386446 247.785465 
L 306.665785 217.119549 
L 309.945124 206.897577 
L 313.224463 244.378141 
L 316.503802 217.119549 
L 319.78314 189.860958 
L 323.062479 234.156169 
L 326.341818 264.822085 
L 329.621157 227.341521 
L 332.900496 210.304901 
L 336.179835 281.858704 
L 339.459174 210.304901 
L 342.738512 254.600113 
L 346.017851 261.414761 
L 349.29719 210.304901 
L 352.576529 254.600113 
L 355.855868 220.526873 
L 359.135207 234.156169 
L 362.414545 237.563493 
L 365.693884 230.748845 
L 368.973223 227.341521 
L 372.252562 254.600113 
L 375.531901 244.378141 
L 378.81124 220.526873 
L 382.090579 227.341521 
L 385.369917 213.712225 
L 388.649256 213.712225 
L 391.928595 251.192789 
L 395.207934 183.04631 
L 398.487273 295.488 
" style="fill:none;stroke:#ff7f0e;stroke-linecap:square;stroke-width:1.5;"/>
   </g>
   <g id="patch_3">
    <path d="M 57.6 307.584 
L 57.6 41.472 
" style="fill:none;stroke:#000000;stroke-linecap:square;stroke-linejoin:miter;stroke-width:0.8;"/>
   </g>
   <g id="patch_4">
    <path d="M 414.72 307.584 
L 414.72 41.472 
" style="fill:none;stroke:#000000;stroke-linecap:square;stroke-linejoin:miter;stroke-width:0.8;"/>
   </g>
   <g id="patch_5">
    <path d="M 57.6 307.584 
L 414.72 307.584 
" style="fill:none;stroke:#000000;stroke-linecap:square;stroke-linejoin:miter;stroke-width:0.8;"/>
   </g>
   <g id="patch_6">
    <path d="M 57.6 41.472 
L 414.72 41.472 
" style="fill:none;stroke:#000000;stroke-linecap:square;stroke-linejoin:miter;stroke-width:0.8;"/>
   </g>
   <g id="text_17">
    <text style="font-family:DejaVu Sans;font-size:12px;font-style:normal;font-weight:normal;text-anchor:middle;" transform="rotate(-0, 236.16, 35.472)" x="236.16" y="35.472">Expected Value in 1/(3+x) Algorithm</text>
   </g>
   <g id="legend_1">
    <g id="patch_7">
     <path d="M 240.571562 78.82825 
L 407.72 78.82825 
Q 409.72 78.82825 409.72 76.82825 
L 409.72 48.472 
Q 409.72 46.472 407.72 46.472 
L 240.571562 46.472 
Q 238.571562 46.472 238.571562 48.472 
L 238.571562 76.82825 
Q 238.571562 78.82825 240.571562 78.82825 
z
" style="fill:#ffffff;opacity:0.8;stroke:#cccccc;stroke-linejoin:miter;"/>
    </g>
    <g id="line2d_17">
     <path d="M 242.571562 54.570437 
L 262.571563 54.570437 
" style="fill:none;stroke:#1f77b4;stroke-linecap:square;stroke-width:1.5;"/>
    </g>
    <g id="line2d_18"/>
    <g id="text_18">
     <text style="font-family:DejaVu Sans;font-size:10px;font-style:normal;font-weight:normal;text-anchor:start;" transform="rotate(-0, 270.571563, 58.070437)" x="270.571563" y="58.070437">1/(3+x)</text>
    </g>
    <g id="line2d_19">
     <path d="M 242.571562 69.248562 
L 262.571563 69.248562 
" style="fill:none;stroke:#ff7f0e;stroke-linecap:square;stroke-width:1.5;"/>
    </g>
    <g id="line2d_20"/>
    <g id="text_19">
     <text style="font-family:DejaVu Sans;font-size:10px;font-style:normal;font-weight:normal;text-anchor:start;" transform="rotate(-0, 270.571563, 72.748562)" x="270.571563" y="72.748562">Simulated Mean of 1/(3+x)</text>
    </g>
   </g>
  </g>
 </g>
 <defs>
  <clipPath id="p5c31911923">
   <rect height="266.112" width="357.12" x="57.6" y="41.472"/>
  </clipPath>
 </defs>
</svg>

<svg height="460.8" viewBox="0 0 460.8 345.6" width="614.4" xmlns="http://www.w3.org/2000/svg" xmlns:xlink="http://www.w3.org/1999/xlink"><defs><style>*{stroke-linecap:butt;stroke-linejoin:round}</style></defs><g id="figure_1"><path d="M0 345.6h460.8V0H0z" fill="#fff" id="patch_1"/><g id="axes_1"><path d="M57.6 307.584h357.12V41.472H57.6z" fill="#fff" id="patch_2"/><g id="matplotlib.axis_1"><g id="xtick_1"><g id="line2d_1"><defs><path d="M0 0v3.5" id="mc919abda45" stroke="#000" stroke-width=".8"/></defs><use x="73.8" xlink:href="#mc919abda45" y="307.584" stroke="#000" stroke-width=".8"/></g><text x="73.8" y="322.182" font-family="DejaVu Sans" font-size="10" font-weight="400" text-anchor="middle" id="text_1">0.0</text></g><g id="xtick_2"><use x="138.744" xlink:href="#mc919abda45" y="307.584" stroke="#000" stroke-width=".8" id="line2d_2"/><text x="138.744" y="322.182" font-family="DejaVu Sans" font-size="10" font-weight="400" text-anchor="middle" id="text_2">0.2</text></g><g id="xtick_3"><use x="203.688" xlink:href="#mc919abda45" y="307.584" stroke="#000" stroke-width=".8" id="line2d_3"/><text x="203.688" y="322.182" font-family="DejaVu Sans" font-size="10" font-weight="400" text-anchor="middle" id="text_3">0.4</text></g><g id="xtick_4"><use x="268.632" xlink:href="#mc919abda45" y="307.584" stroke="#000" stroke-width=".8" id="line2d_4"/><text x="268.632" y="322.182" font-family="DejaVu Sans" font-size="10" font-weight="400" text-anchor="middle" id="text_4">0.6</text></g><g id="xtick_5"><use x="333.576" xlink:href="#mc919abda45" y="307.584" stroke="#000" stroke-width=".8" id="line2d_5"/><text x="333.576" y="322.182" font-family="DejaVu Sans" font-size="10" font-weight="400" text-anchor="middle" id="text_5">0.8</text></g><g id="xtick_6"><use x="398.52" xlink:href="#mc919abda45" y="307.584" stroke="#000" stroke-width=".8" id="line2d_6"/><text x="398.52" y="322.182" font-family="DejaVu Sans" font-size="10" font-weight="400" text-anchor="middle" id="text_6">1.0</text></g><text x="236.16" y="335.861" font-family="DejaVu Sans" font-size="10" font-weight="400" text-anchor="middle" id="text_7">Input Coin&apos;s Heads Probability (λ)</text></g><g id="matplotlib.axis_2"><g id="ytick_1"><g id="line2d_7"><defs><path d="M0 0h-3.5" id="m174a58d7fa" stroke="#000" stroke-width=".8"/></defs><use x="57.6" xlink:href="#m174a58d7fa" y="305.71" stroke="#000" stroke-width=".8"/></g><text x="50.6" y="309.509" font-family="DejaVu Sans" font-size="10" font-weight="400" text-anchor="end" id="text_8">0.22</text></g><g id="ytick_2"><use x="57.6" xlink:href="#m174a58d7fa" y="271.637" stroke="#000" stroke-width=".8" id="line2d_8"/><text x="50.6" y="275.436" font-family="DejaVu Sans" font-size="10" font-weight="400" text-anchor="end" id="text_9">0.24</text></g><g id="ytick_3"><use x="57.6" xlink:href="#m174a58d7fa" y="237.563" stroke="#000" stroke-width=".8" id="line2d_9"/><text x="50.6" y="241.363" font-family="DejaVu Sans" font-size="10" font-weight="400" text-anchor="end" id="text_10">0.26</text></g><g id="ytick_4"><use x="57.6" xlink:href="#m174a58d7fa" y="203.49" stroke="#000" stroke-width=".8" id="line2d_10"/><text x="50.6" y="207.289" font-family="DejaVu Sans" font-size="10" font-weight="400" text-anchor="end" id="text_11">0.28</text></g><g id="ytick_5"><use x="57.6" xlink:href="#m174a58d7fa" y="169.417" stroke="#000" stroke-width=".8" id="line2d_11"/><text x="50.6" y="173.216" font-family="DejaVu Sans" font-size="10" font-weight="400" text-anchor="end" id="text_12">0.30</text></g><g id="ytick_6"><use x="57.6" xlink:href="#m174a58d7fa" y="135.344" stroke="#000" stroke-width=".8" id="line2d_12"/><text x="50.6" y="139.143" font-family="DejaVu Sans" font-size="10" font-weight="400" text-anchor="end" id="text_13">0.32</text></g><g id="ytick_7"><use x="57.6" xlink:href="#m174a58d7fa" y="101.271" stroke="#000" stroke-width=".8" id="line2d_13"/><text x="50.6" y="105.07" font-family="DejaVu Sans" font-size="10" font-weight="400" text-anchor="end" id="text_14">0.34</text></g><g id="ytick_8"><use x="57.6" xlink:href="#m174a58d7fa" y="67.197" stroke="#000" stroke-width=".8" id="line2d_14"/><text x="50.6" y="70.997" font-family="DejaVu Sans" font-size="10" font-weight="400" text-anchor="end" id="text_15">0.36</text></g><text transform="rotate(-90 22.255 174.528)" x="22.255" y="174.528" font-family="DejaVu Sans" font-size="10" font-weight="400" text-anchor="middle" id="text_16">Simulated Mean / Function Value</text></g><path clip-path="url(#p5c31911923)" d="M73.833 112.647l3.28 1.905 3.278 1.893 3.28 1.88 3.28 1.867 3.278 1.855 3.28 1.843 3.28 1.83 3.278 1.819 3.28 1.806 3.28 1.795 3.278 1.784 3.28 1.771 3.28 1.76 3.278 1.75 3.28 1.738 3.28 1.726 3.278 1.716 3.28 1.705 3.28 1.694 3.279 1.683 3.279 1.673 3.28 1.662 3.279 1.652 3.279 1.641 3.28 1.632 3.279 1.621 3.279 1.611 3.28 1.602 3.279 1.591 3.279 1.582 3.28 1.572 3.279 1.563 3.279 1.553 3.28 1.544 3.279 1.534 3.279 1.526 3.28 1.516 3.279 1.507 3.279 1.498 3.28 1.49 3.279 1.48 3.279 1.471 3.28 1.463 3.279 1.455 3.279 1.446 3.28 1.437 3.279 1.43 3.279 1.42 3.28 1.413 3.279 1.404 3.279 1.397 3.28 1.388 3.279 1.38 3.279 1.373 3.28 1.365 3.279 1.357 3.279 1.35 3.28 1.342 3.279 1.334 3.28 1.327 3.278 1.32 3.28 1.311 3.28 1.305 3.278 1.298 3.28 1.29 3.28 1.283 3.278 1.277 3.28 1.269 3.28 1.262 3.278 1.256 3.28 1.248 3.28 1.242 3.278 1.235 3.28 1.229 3.28 1.221 3.278 1.216 3.28 1.209 3.28 1.202 3.278 1.196 3.28 1.19 3.28 1.183 3.279 1.177 3.279 1.171 3.28 1.165 3.279 1.158 3.279 1.153 3.28 1.147 3.279 1.14 3.279 1.135 3.28 1.129 3.279 1.123 3.279 1.117 3.28 1.112 3.279 1.106 3.279 1.1 3.28 1.095 3.279 1.089 3.279 1.083 3.28 1.078" fill="none" stroke="#1f77b4" stroke-linecap="square" stroke-width="1.5" id="line2d_15"/><path clip-path="url(#p5c31911923)" d="M73.833 101.27l3.28 13.63 3.278 40.888 3.28-34.074 3.28-20.443 3.278 3.407 3.28-51.11 3.28 81.776 3.278-61.332 3.28 64.74 3.28-3.408 3.278-6.815 3.28-40.888 3.28 98.813 3.278-57.925 3.28-10.222 3.28 3.407 3.278 57.925 3.28-37.48 3.28 10.221 3.279-27.258 3.279 13.63 3.28-51.11 3.279 129.478 3.279-54.518 3.28-37.48 3.279 44.295 3.279-30.666 3.28 23.851 3.279-34.073 3.279-30.666 3.28 44.295 3.279 23.852 3.279 17.036 3.28 20.444 3.279 6.815 3.279-51.11 3.28 64.74 3.279-13.63 3.279-23.851 3.28-13.63 3.279 81.776 3.279-44.295h3.28l3.279-17.037 3.279-17.036 3.28 44.295 3.279-68.147 3.279 47.703 3.28-44.295 3.279 30.666 3.279-34.074 3.28 34.074 3.279 71.553 3.279-68.146 3.28 20.444 3.279 81.776 3.279-126.071 3.28 20.444 3.279 27.258 3.28-34.073 3.278 20.444h3.28l3.28 20.444 3.278-51.11 3.28 6.815 3.28 44.295 3.278 27.258 3.28-37.48h3.28l3.278 37.48 3.28-30.665 3.28-10.222 3.278 37.48 3.28-27.258 3.28-27.259 3.278 44.295 3.28 30.666 3.28-37.48 3.278-17.037 3.28 71.554 3.28-71.554 3.279 44.295 3.279 6.815 3.28-51.11 3.279 44.295 3.279-34.073 3.28 13.63 3.279 3.406 3.279-6.814 3.28-3.407 3.279 27.258 3.279-10.222 3.28-23.851 3.279 6.815 3.279-13.63h3.28l3.279 37.48 3.279-68.146 3.28 112.442" fill="none" stroke="#ff7f0e" stroke-linecap="square" stroke-width="1.5" id="line2d_16"/><path d="M57.6 307.584V41.472" fill="none" stroke="#000" stroke-linecap="square" stroke-width=".8" id="patch_3"/><path d="M414.72 307.584V41.472" fill="none" stroke="#000" stroke-linecap="square" stroke-width=".8" id="patch_4"/><path d="M57.6 307.584h357.12" fill="none" stroke="#000" stroke-linecap="square" stroke-width=".8" id="patch_5"/><path d="M57.6 41.472h357.12" fill="none" stroke="#000" stroke-linecap="square" stroke-width=".8" id="patch_6"/><text x="236.16" y="35.472" font-family="DejaVu Sans" font-size="12" font-weight="400" text-anchor="middle" id="text_17">Expected Value in 1/(3+x) Algorithm</text><g id="legend_1"><path d="M240.572 78.828H407.72q2 0 2-2V48.472q0-2-2-2H240.572q-2 0-2 2v28.356q0 2 2 2z" fill="#fff" opacity=".8" stroke="#ccc" id="patch_7"/><path d="M242.572 54.57h20" fill="none" stroke="#1f77b4" stroke-linecap="square" stroke-width="1.5" id="line2d_17"/><text x="270.572" y="58.07" font-family="DejaVu Sans" font-size="10" font-weight="400" id="text_18">1/(3+x)</text><path d="M242.572 69.249h20" fill="none" stroke="#ff7f0e" stroke-linecap="square" stroke-width="1.5" id="line2d_19"/><text x="270.572" y="72.749" font-family="DejaVu Sans" font-size="10" font-weight="400" id="text_19">Simulated Mean of 1/(3+x)</text></g></g></g><defs><clipPath id="p5c31911923"><path d="M57.6 41.472h357.12v266.112H57.6z"/></clipPath></defs></svg>
